src/assets/icons/filters/categories/bookshelf.svg

<svg width="48" height="47" viewBox="0 0 48 47" fill="none" xmlns="http://www.w3.org/2000/svg">
<path fill-rule="evenodd" clip-rule="evenodd" d="M3.07619 46.4522H7.80455C8.61644 46.4548 9.39622 46.1353 9.97288 45.5638C10.5495 44.9922 10.876 44.2154 10.8807 43.4035V22.7683L12.4455 43.6317C12.507 44.444 12.8825 45.1835 13.5071 45.7143C13.8131 45.9773 14.168 46.1773 14.5515 46.3028C14.935 46.4283 15.3395 46.4769 15.7418 46.4457L20.4588 46.0978C20.8615 46.0695 21.2545 45.9621 21.6155 45.7816C21.9765 45.6011 22.2983 45.3511 22.5625 45.046C23.0965 44.431 23.3603 43.6446 23.2988 42.8323L21.331 16.611L24.904 43.8016C25.0138 44.6067 25.4382 45.3354 26.0843 45.8283C26.7303 46.3211 27.5453 46.5379 28.3508 46.4311L33.0387 45.8259C33.8559 45.7207 34.5792 45.3081 35.0825 44.6608C35.5825 44.0168 35.7993 43.2158 35.6941 42.4083L34.9562 36.7835L37.5227 44.3728C37.7857 45.1428 38.343 45.7773 39.0726 46.1376C39.8022 46.4978 40.6448 46.5545 41.4161 46.2952L45.9001 44.8065C46.2816 44.6815 46.6347 44.4823 46.939 44.2204C47.2433 43.9585 47.4928 43.6391 47.6733 43.2804C47.8537 42.9218 47.9615 42.531 47.9905 42.1306C48.0194 41.7301 47.9689 41.3279 47.8419 40.9471L41.4096 21.9268C41.1448 21.1574 40.5867 20.5237 39.8569 20.164C39.127 19.8042 38.2845 19.7474 37.513 20.006L33.0306 21.4948C33.0031 21.5028 32.9788 21.519 32.9497 21.5304L31.2749 8.76927C31.163 7.96479 30.7379 7.23706 30.092 6.74456C29.4462 6.25205 28.6319 6.03465 27.8265 6.1397L23.137 6.74329C22.6131 6.81124 22.1158 7.01356 21.6933 7.33057C21.2708 7.64758 20.9375 8.06851 20.7258 8.55243L20.2954 2.82402C20.2645 2.42252 20.1547 2.03106 19.9722 1.67211C19.7896 1.31317 19.538 0.993802 19.2318 0.732343C18.9255 0.470884 18.5706 0.272479 18.1875 0.148517C17.8044 0.0245552 17.4005 -0.0225244 16.9991 0.00997987L12.2837 0.357892C11.4796 0.416588 10.7307 0.788452 10.1979 1.39354C9.91091 1.03351 9.54669 0.742609 9.13214 0.542337C8.71759 0.342066 8.26332 0.237553 7.80294 0.236528H3.07619C2.2643 0.233943 1.48453 0.553437 0.90786 1.12495C0.331193 1.69645 0.00470871 2.47333 0 3.28521V43.4035C0 45.0848 1.38032 46.4522 3.07619 46.4522Z" fill="#CFD8DC"/>
<path fill-rule="evenodd" clip-rule="evenodd" d="M7.77219 3.28521V43.3711L3.10693 43.4035L3.07457 3.31757L7.77219 3.28521V3.28521ZM17.1949 3.05219L20.1967 43.0281L15.546 43.4035L12.5151 3.42923L17.1949 3.05219V3.05219ZM28.1922 9.16573L32.6066 42.7756L27.9867 43.4035L23.5383 9.80006L28.1922 9.16573V9.16573ZM38.4596 22.9074L44.8823 41.8953L40.4694 43.3938L34.0177 24.4156L38.4596 22.9074V22.9074ZM3.07619 46.4522H7.80617C8.61806 46.4548 9.39783 46.1353 9.9745 45.5638C10.5512 44.9922 10.8777 44.2154 10.8824 43.4035V22.7683L12.4472 43.6317C12.5086 44.444 12.8841 45.1835 13.5087 45.7143C13.8147 45.9773 14.1696 46.1773 14.5531 46.3028C14.9366 46.4283 15.3411 46.4769 15.7434 46.4457L20.4605 46.0978C20.8631 46.0695 21.2561 45.9621 21.6171 45.7816C21.9781 45.6011 22.2999 45.3511 22.5641 45.046C23.0981 44.431 23.3619 43.6446 23.3004 42.8323L21.3327 16.611L24.9056 43.8016C25.0155 44.6067 25.4399 45.3354 26.0859 45.8283C26.7319 46.3211 27.5469 46.5379 28.3524 46.4311L33.0403 45.8259C33.8575 45.7207 34.5808 45.3081 35.0841 44.6608C35.5841 44.0168 35.8009 43.2158 35.6958 42.4083L34.9579 36.7835L37.5243 44.3728C37.7874 45.1428 38.3446 45.7773 39.0742 46.1376C39.8038 46.4978 40.6464 46.5545 41.4177 46.2952L45.9017 44.8065C46.2832 44.6815 46.6363 44.4823 46.9406 44.2204C47.2449 43.9585 47.4944 43.6391 47.6749 43.2804C47.8553 42.9218 47.9631 42.531 47.9921 42.1306C48.021 41.7301 47.9705 41.3279 47.8436 40.9471L41.4112 21.9268C41.1465 21.1574 40.5883 20.5237 39.8585 20.164C39.1286 19.8042 38.2861 19.7474 37.5146 20.006L33.0322 21.4948C33.0047 21.5028 32.9804 21.519 32.9513 21.5304L31.2765 8.76927C31.1646 7.96479 30.7395 7.23706 30.0936 6.74456C29.4478 6.25205 28.6335 6.03465 27.8281 6.1397L23.1386 6.74329C22.6148 6.81124 22.1174 7.01356 21.6949 7.33057C21.2724 7.64758 20.9392 8.06851 20.7275 8.55243L20.297 2.82402C20.2662 2.42252 20.1563 2.03106 19.9738 1.67211C19.7913 1.31317 19.5396 0.993802 19.2334 0.732343C18.9271 0.470884 18.5722 0.272479 18.1891 0.148517C17.806 0.0245552 17.4021 -0.0225244 17.0008 0.00997987L12.2837 0.357892C11.4796 0.416588 10.7307 0.788452 10.1979 1.39354C9.91091 1.03351 9.54669 0.742609 9.13214 0.542337C8.71759 0.342066 8.26332 0.237553 7.80294 0.236528H3.07619C2.2643 0.233943 1.48453 0.553437 0.90786 1.12495C0.331193 1.69645 0.00470871 2.47333 0 3.28521V43.4035C0 45.0848 1.38032 46.4522 3.07619 46.4522Z" fill="#253238"/>
<path fill-rule="evenodd" clip-rule="evenodd" d="M17.1947 3.05219L20.1965 43.0281L15.5458 43.4035L12.5149 3.42922L17.1947 3.05219ZM38.4594 22.9074L44.882 41.8953L40.4692 43.3938L34.0175 24.4156L38.4594 22.9074Z" fill="white" fill-opacity="0.5"/>
</svg>

<svg width="48" height="47" viewBox="0 0 48 47" fill="none" xmlns="http://www.w3.org/2000/svg"><path fill-rule="evenodd" clip-rule="evenodd" d="M3.076 46.452h4.729a3.066 3.066 0 003.076-3.048V22.768l1.564 20.864a3.011 3.011 0 001.062 2.082 3.065 3.065 0 002.235.732l4.717-.348a3.067 3.067 0 002.104-1.052 3.01 3.01 0 00.736-2.214L21.33 16.611l3.573 27.19a3.071 3.071 0 003.447 2.63l4.688-.605a3.063 3.063 0 002.044-1.165c.5-.644.716-1.445.611-2.253l-.738-5.625 2.567 7.59a3.078 3.078 0 003.893 1.922l4.484-1.489a3.047 3.047 0 001.942-3.859l-6.432-19.02a3.084 3.084 0 00-3.897-1.921l-4.482 1.489c-.028.008-.052.024-.081.035L31.275 8.77a3.08 3.08 0 00-3.448-2.63l-4.69.603a3.062 3.062 0 00-2.411 1.81l-.43-5.729A3.06 3.06 0 0016.998.01l-4.715.348a3.078 3.078 0 00-2.086 1.036A3.072 3.072 0 007.803.237H3.076A3.066 3.066 0 000 3.285v40.119c0 1.68 1.38 3.048 3.076 3.048z" fill="#CFD8DC"/><path fill-rule="evenodd" clip-rule="evenodd" d="M7.772 3.285v40.086l-4.665.032-.032-40.085 4.697-.033zm9.423-.233l3.002 39.976-4.651.376-3.03-39.975 4.679-.377zm10.997 6.114l4.415 33.61-4.62.627L23.538 9.8l4.654-.634zM38.46 22.907l6.422 18.988-4.413 1.499-6.451-18.978 4.442-1.509zM3.076 46.452h4.73a3.066 3.066 0 003.076-3.048V22.768l1.565 20.864a3.01 3.01 0 001.062 2.082 3.065 3.065 0 002.234.732l4.717-.348a3.067 3.067 0 002.104-1.052 3.01 3.01 0 00.736-2.214l-1.967-26.221 3.573 27.19a3.072 3.072 0 003.446 2.63l4.688-.605a3.063 3.063 0 002.044-1.165c.5-.644.717-1.445.612-2.253l-.738-5.625 2.566 7.59a3.078 3.078 0 003.894 1.922l4.484-1.489a3.047 3.047 0 001.942-3.859l-6.433-19.02a3.084 3.084 0 00-3.896-1.921l-4.483 1.489c-.027.008-.052.024-.08.035L31.276 8.77a3.08 3.08 0 00-3.449-2.63l-4.69.603a3.062 3.062 0 00-2.41 1.81l-.431-5.729A3.058 3.058 0 0017.001.01l-4.717.348a3.078 3.078 0 00-2.086 1.036A3.072 3.072 0 007.803.237H3.076A3.066 3.066 0 000 3.285v40.119c0 1.68 1.38 3.048 3.076 3.048z" fill="#253238"/><path fill-rule="evenodd" clip-rule="evenodd" d="M17.195 3.052l3.002 39.976-4.651.376-3.031-39.975 4.68-.377zm21.264 19.855l6.423 18.988-4.413 1.499-6.452-18.978 4.442-1.509z" fill="#fff" fill-opacity=".5"/></svg>
